!!!OTL: Da liang peng
!!!ARE: Asia, China,ÿJiangsu, Kunshan
!! III, 491
!!!SCT: C1584
!!!YEM: Copyright 1995, estate of Helmut Schaffrath.
**kern
*ICvox
*Ivox
*M2/4
*k[f#c#]
*D:
{8a
8a
8f#
8a
=1
8a
16f#
16e
8f#
8a
=2
8b
8b
8b
8a
=3
16b
16a
4b
8dd
=4
8dd
16b
16a
16f#
16a
16f#
16e
=5
2f#}
=6
{8a
8a
8f#
8a
=7
16b
16a
4b
8dd
=8
8dd
16b
16a
16f#
16a
16f#
16e
=9
2f#}
=10
{4a
8a
8dd
=11
16b
16dd
16b
16a
8.f#
16e
=12
8f#
16b
16dd
16b
16a
8f#
=13
8e
4e
8f#
=14
8d
16e
16e
8d
8A
=15
2B}
=16
{8ee
16ff#
16ee
8dd
8ee
=17
8.b
16dd
8b
8a
=18
8f#
16b
16dd
16b
16a
8f#
=19
8e
4e
8f#
=20
8d
16e
16e
8d
8A
=21
2B}
==
!!!AGN: Shange
!!!AMT: simple duple
!!!AIN: vox
!!!EED: Helmut Schaffrath
!!!EEV: 1.0
*-
